X: 19052
T: Invitation, The
R: hornpipe
M: 4/4
K: Dmajor
d2 A2 A2 GF|EF G2 GBAG|FABc dAGF|EDCB, A,gfe|
f2 d2 dfaf|gfed cbag|fd'c'b afge|f2 d2 d4|
|:d2 A2 A2 GF|EF G2 GBAG|1 FABc dABG|F2 D2 D4:|2 FABc dAge|f2 d2 d4||
|:d2 A2 dfed|e2 A2 egfe|fdec dBed|c2 A2 A2 dc|
B2 G2 G2 ed|c2 F2 A2 Bc|1 dABF GEAG|F2 D2 D4:|2 dABF Ggfe|f2 d2 d4 {abc'}||
d'2 a2 a2 gf|ef g2 gbag|fd'c'b afge|f2 d2 d4||

